X: 33929
T: Red-Haired Girl, The
R: slip jig
M: 9/8
K: Adorian
c2A AEA cBA|c/B/AG Gge dBG|~c2A A2B cBA|Bge dBG A2B|
c2A AEA cBA|c/B/AG Gge dBG|c2A AEA cBA|Bge dBG AB/^c/d||
e2a age aba|g2e dB/^c/d ged|e2a age aba|gfe dBG ABA|
A2a age aba|g2e dBG GAB|cec B/c/dB AGE|Gge dBG A2B||

